tools/download-figma-icons/icons/outlined-large/coin-50.svg

<svg width="64" height="64" viewBox="0 0 64 64" fill="none" xmlns="http://www.w3.org/2000/svg">
<path fill-rule="evenodd" clip-rule="evenodd" d="M3 32C3 47.99 16.01 61 32 61C47.99 61 61 47.99 61 32C61 16.01 47.99 3 32 3C16.01 3 3 16.01 3 32ZM0 32C0 14.355 14.355 0 32 0C49.645 0 64 14.355 64 32C64 49.645 49.645 64 32 64C14.355 64 0 49.645 0 32ZM30.0113 36.9998C30.8553 36.9998 31.4873 36.7578 31.9473 36.2588C32.9783 35.1388 33.0453 32.9368 32.9833 32.1828C32.9773 32.0988 32.9763 32.0098 32.9843 31.9268C33.0473 31.1478 32.9793 28.8658 31.9243 27.7268C31.4653 27.2318 30.8653 26.9998 30.0363 26.9998H30.0173C29.1553 27.0038 28.5093 27.2548 28.0443 27.7698C26.9973 28.9248 26.9523 31.2068 27.0183 31.9148C27.0273 32.0038 27.0273 32.0938 27.0193 32.1828C26.9613 32.9328 27.0343 35.1348 28.0693 36.2568C28.5323 36.7568 29.1673 36.9998 30.0113 36.9998ZM30.0343 23.9998C31.6933 23.9998 33.1103 24.5868 34.1343 25.6988C36.1213 27.8568 36.0323 31.2628 35.9813 32.0548C36.0313 32.8338 36.1163 36.1478 34.1643 38.2798C33.1333 39.4048 31.6973 39.9998 30.0113 39.9998C28.3263 39.9998 26.8893 39.4048 25.8563 38.2798C23.9023 36.1528 23.9743 32.8478 24.0223 32.0628C23.9673 31.2718 23.8603 27.9198 25.8223 25.7548C26.8563 24.6128 28.3023 24.0068 30.0063 23.9998H30.0343ZM21.8082 36.1244C21.3322 37.8774 20.0442 39.2594 18.4482 39.7334C17.8092 39.9234 17.1932 40.0004 16.6162 40.0004C14.3722 40.0004 12.7192 38.8524 12.6342 38.7924C11.9572 38.3134 11.7972 37.3774 12.2752 36.7014C12.7552 36.0244 13.6922 35.8674 14.3662 36.3424C14.3712 36.3464 15.8892 37.3644 17.5942 36.8584C18.1832 36.6824 18.7142 36.0714 18.9142 35.3374C19.0792 34.7314 19.0892 33.8094 18.2012 32.8584C16.7392 31.2894 14.3292 32.7944 14.3052 32.8094C13.8442 33.1024 13.2602 33.1214 12.7782 32.8594C12.2992 32.5954 12.0002 32.0914 12.0002 31.5434V25.5004C12.0002 24.6714 12.6722 24.0004 13.5002 24.0004H19.4992C20.3272 24.0004 21.0002 24.6714 21.0002 25.5004C21.0002 26.3284 20.3272 27.0004 19.4992 27.0004H15.0002V29.3324C16.6942 28.9384 18.7722 29.0734 20.3942 30.8104C21.8022 32.3194 22.3172 34.2554 21.8082 36.1244ZM49.5928 27.8115C50.2538 28.3125 51.1938 28.1845 51.6948 27.5245C52.1958 26.8655 52.0678 25.9235 51.4068 25.4235C48.4838 23.2015 44.5558 23.6175 42.0708 26.4155C41.3908 27.1805 40.8808 28.0645 40.5378 29.0075H39.4998C38.6718 29.0075 37.9998 29.6795 37.9998 30.5075C37.9998 31.3355 38.6718 32.0075 39.4998 32.0075H40.0158C40.0158 32.3415 40.0418 32.6745 40.0788 33.0065H39.4998C38.6718 33.0065 37.9998 33.6785 37.9998 34.5065C37.9998 35.3335 38.6718 36.0055 39.4998 36.0055H40.9868C41.2818 36.5735 41.6388 37.1115 42.0708 37.5975C43.4548 39.1555 45.3618 39.9995 47.2968 39.9995C48.0628 39.9995 48.8328 39.8685 49.5778 39.5955C50.2078 39.3655 50.8238 39.0235 51.4078 38.5805C52.0678 38.0795 52.1958 37.1385 51.6948 36.4785C51.1928 35.8195 50.2508 35.6915 49.5918 36.1925C49.2478 36.4545 48.8968 36.6515 48.5478 36.7785C47.2328 37.2605 45.8118 36.9595 44.7208 36.0055H46.4998C47.3278 36.0055 47.9998 35.3335 47.9998 34.5065C47.9998 33.6785 47.3278 33.0065 46.4998 33.0065H43.0798C43.0228 32.6765 42.9898 32.3425 42.9898 32.0075H46.4998C47.3278 32.0075 47.9998 31.3355 47.9998 30.5075C47.9998 29.6795 47.3278 29.0075 46.4998 29.0075H43.8768L43.8768 29.0074C44.0118 28.8005 44.1468 28.5935 44.3128 28.4075C45.7518 26.7885 47.9228 26.5425 49.5928 27.8115ZM39.8926 50.1445C36.0246 51.8635 31.7626 52.4015 27.9066 51.6665C23.8986 50.9025 20.2196 49.0405 17.5466 46.4275C16.9536 45.8465 16.0036 45.8595 15.4256 46.4555C14.8476 47.0505 14.8606 48.0045 15.4536 48.5845C18.5876 51.6505 22.7006 53.7405 27.3456 54.6255C28.6546 54.8755 30.0006 54.9995 31.3616 54.9995C34.6306 54.9995 37.9856 54.2875 41.1056 52.9005C41.8636 52.5645 42.2056 51.6735 41.8716 50.9145C41.5366 50.1525 40.6526 49.8095 39.8926 50.1445ZM44.4395 47.4395L45.4395 46.4395C46.0255 45.8535 46.9745 45.8535 47.5605 46.4395C48.1465 47.0255 48.1465 47.9745 47.5605 48.5605L46.5605 49.5605C46.2675 49.8535 45.8835 50.0005 45.5005 50.0005C45.1165 50.0005 44.7325 49.8535 44.4395 49.5605C43.8535 48.9745 43.8535 48.0255 44.4395 47.4395ZM24.1074 13.8555C27.9754 12.1355 32.2354 11.5965 36.0934 12.3335C40.1014 13.0975 43.7804 14.9595 46.4534 17.5725C46.7454 17.8575 47.1234 18.0005 47.5004 18.0005C47.8904 18.0005 48.2804 17.8475 48.5744 17.5445C49.1524 16.9495 49.1394 15.9955 48.5464 15.4155C45.4124 12.3495 41.2994 10.2595 36.6544 9.3745C32.2014 8.5225 27.3124 9.1365 22.8944 11.0995C22.1364 11.4355 21.7944 12.3265 22.1284 13.0855C22.4634 13.8465 23.3484 14.1925 24.1074 13.8555ZM18.561 17.561C18.268 17.854 17.884 18 17.5 18C17.116 18 16.732 17.854 16.439 17.561C15.854 16.975 15.854 16.025 16.439 15.439L17.439 14.439C18.025 13.854 18.975 13.854 19.561 14.439C20.146 15.025 20.146 15.975 19.561 16.561L18.561 17.561Z" fill="black"/>
</svg>

<svg width="64" height="64" viewBox="0 0 64 64" fill="none" xmlns="http://www.w3.org/2000/svg"><path fill-rule="evenodd" clip-rule="evenodd" d="M3 32c0 15.99 13.01 29 29 29s29-13.01 29-29S47.99 3 32 3 3 16.01 3 32Zm-3 0C0 14.355 14.355 0 32 0s32 14.355 32 32-14.355 32-32 32S0 49.645 0 32Zm30.011 5c.844 0 1.476-.242 1.936-.741 1.031-1.12 1.098-3.322 1.036-4.076a1.563 1.563 0 0 1 .001-.256c.063-.78-.005-3.061-1.06-4.2-.459-.495-1.059-.727-1.888-.727h-.019c-.862.004-1.508.255-1.973.77-1.047 1.155-1.092 3.437-1.026 4.145.01.089.01.179.001.268-.058.75.015 2.952 1.05 4.074.463.5 1.098.743 1.942.743Zm.023-13c1.66 0 3.076.587 4.1 1.699 1.987 2.158 1.898 5.564 1.847 6.356.05.779.135 4.093-1.817 6.225-1.03 1.125-2.467 1.72-4.153 1.72-1.685 0-3.122-.595-4.155-1.72-1.954-2.127-1.882-5.432-1.834-6.217-.055-.791-.162-4.143 1.8-6.308 1.034-1.142 2.48-1.748 4.184-1.755h.028Zm-8.226 12.124c-.476 1.753-1.764 3.135-3.36 3.61a6.406 6.406 0 0 1-1.832.266c-2.244 0-3.897-1.148-3.982-1.208a1.5 1.5 0 0 1 1.732-2.45c.005.004 1.523 1.022 3.228.516.59-.176 1.12-.787 1.32-1.52.165-.607.175-1.529-.713-2.48-1.462-1.569-3.872-.064-3.896-.049a1.505 1.505 0 0 1-1.527.05A1.503 1.503 0 0 1 12 31.543V25.5a1.5 1.5 0 0 1 1.5-1.5h6a1.5 1.5 0 1 1 0 3H15v2.332c1.694-.394 3.772-.259 5.394 1.478 1.408 1.51 1.923 3.445 1.414 5.314Zm27.785-8.313a1.5 1.5 0 1 0 1.814-2.387c-2.923-2.223-6.851-1.806-9.336.992a8.012 8.012 0 0 0-1.533 2.591H39.5a1.5 1.5 0 0 0 0 3h.516c0 .335.026.668.063 1h-.58a1.5 1.5 0 0 0 0 2.998h1.488a7.787 7.787 0 0 0 1.084 1.592C43.455 39.156 45.36 40 47.297 40c.766 0 1.536-.13 2.28-.404a7.034 7.034 0 0 0 1.83-1.014 1.5 1.5 0 1 0-1.815-2.389 3.992 3.992 0 0 1-1.044.587c-1.315.481-2.736.18-3.827-.774H46.5a1.5 1.5 0 0 0 0-2.998h-3.42a5.872 5.872 0 0 1-.09-1h3.51a1.5 1.5 0 0 0 0-3h-2.623c.135-.207.27-.414.436-.6 1.439-1.619 3.61-1.864 5.28-.596Zm-9.7 22.334c-3.868 1.718-8.13 2.256-11.986 1.521-4.008-.763-7.687-2.625-10.36-5.238a1.495 1.495 0 0 0-2.121.028 1.51 1.51 0 0 0 .028 2.128c3.134 3.066 7.247 5.156 11.892 6.041 1.309.25 2.655.374 4.016.374 3.269 0 6.624-.712 9.744-2.099a1.51 1.51 0 0 0 .766-1.986 1.498 1.498 0 0 0-1.98-.77Zm4.547-2.706 1-1a1.5 1.5 0 1 1 2.12 2.121l-1 1a1.496 1.496 0 0 1-2.12 0 1.5 1.5 0 0 1 0-2.12ZM24.107 13.855c3.868-1.72 8.128-2.258 11.986-1.521 4.008.764 7.687 2.626 10.36 5.239a1.496 1.496 0 0 0 2.121-.029 1.51 1.51 0 0 0-.028-2.129c-3.134-3.065-7.247-5.155-11.892-6.04-4.453-.852-9.342-.239-13.76 1.725a1.51 1.51 0 0 0-.766 1.986 1.498 1.498 0 0 0 1.98.77Zm-5.546 3.706A1.495 1.495 0 0 1 17.5 18a1.502 1.502 0 0 1-1.061-2.561l1-1a1.502 1.502 0 0 1 2.122 0 1.502 1.502 0 0 1 0 2.122l-1 1Z" fill="currentColor"/></svg>
